!!!OTL: Die Erscheinung auf dem Kirchhof (57),
!!!id: T0203
**kern
*clefG2
*k[]
*C:
{8g
8a
=1
4.g
8f
8e
8g
8cc
8e
=2
4e
4d}
4r
=3
{8b
8cc
=4
4.dd
8cc
8b
8a
8g
8f
=5
4f
4e}
4r
=6
{8g
8a
=7
4g
4e
4r
8cc
8dd
=8
4cc
8.g
16g
8g
8g
8a
8b
=9
4cc}
4r
=10
{4cc
8b
8a
=11
4g
8e
8g
8g
8g
8f
8f
=12
2e}
4r
==
*-
!!!minrhy: 16
!!!meters: 4/4 ]  ZZ[4
!!!cut1: Die Erscheinung auf dem Kirchhof (57),
!!!cut2: Melodie II, S. 181
!!!reg: Luxemburg
!!!trd: Singendes Volk, Esch-Alzette 1937 posth.
!!!rhy1: X_X_  X__.X_X_X_X_X_  X__X__0_   (x2)
!!!rhy2: X_X_  X__.X_X_X_X_X_  X__X__0_
!!!key: T0203  16  C 4/4 ]  ZZ[4
!!!mod: HEPTATONIK IONISCH]  AMBITUS[8
!!!kad: 23+13
!!!akz: 533_+274_5+15+1_+1553_
!!!fot: 'a__b__c__d__
!!!for: 'a__a__b__c__
!!!fok: 'Sd_^d_/__\__
!! PHRAS[AUFTAKTIG]
!!!fkt: Liebeslieder
!! THILL, Mathias:
!! PR[41] 2K[3] 2G[10] 3K[7] 3G[3] 4A[3] 4Ü[0] 5A[3] 6K[0] 6G[0]
!! 7K[0] 7G[0] 8A[0] MEHR[0] SI[31] ABS[29] SR[14] SP[17]
!! ST[8] 2k[0] 2g[10] 3k[7] 3g[3] 4d[3] 4ü[0] 5d[0] 6k[3] 6g[0]
!! 7k[0] 7g[0] 8d[0] mehr[0] si[28] dm[+3] sr[10] sp[17]
!! 1F[25] 2F[59] 3F[9] 4F[0] LF[0] 2P[6] 3P[0] 4P[0] TRI[0] DF[4] AB[32]
!! TF[0] U3K[0] U3[10] U4[3] U4Ü[0] U5[10] U6K[0] U6[7] U7K[0] U7[3]
!! N1[40] N2K[0] N2[7] N3K[0] N3[3] N4[7] N4Ü[0] N5[10] N6K[0] N6[0]
!!!n7k: 0] N7[0] O1[0] O2K[0] O2[0] O3K[0] O3[0] HÖ[0
